X:1
T:Dans la nuit de Nol
C:J.S Bach
M:C
L:1/8
%%staves [(1 2) (3 4)]
K:C
V:1 clef=treble
E2F2G4|C2D2E4|A2B2c2E2|D4C4|E2F2G4|
C2D2E4|A2B2c2E2|D4C4|G2D2E4|A3G^F4|
G2D2E^FG2|G2^F2G4|A2B2c2E2|D4C4||
V:2 clef=treble
C2C2(DCB,2)|C2(CB,)C4|F2F2G2C2|(C2B,2)G,4|C2C2(DCB,2)|
C2(CB,)C4|F2F2G2C2|(C2B,2)C4|(DC) (B,D)C4|A,2A,2A,4|
D2D2(DC)B,2|A,2A,2B,4|D2D2C2C2|(C2B,2)G,4||
V:3 clef=bass
G,2A,2(D,2E,2)|E,2A,G,G,4|C2D2C2G,2|(A,2G,)F,E,4|G,2A,2(D,2E,2)|
E,2A,G,G,4|C2D2C2G,2|(A,2G,)F,E,4|G,2G,2G,4|(E,D,) (C,E,)D,4|
(G,A,)B,2(B,A,) (G,^F,)|E,2D,2D,4|=F,2G,2G,2G,2|(A,2(G,)F,)E,4||
V:4 clef=bass
(C,B,,) (A,,C,) (B,,A,,) (G,,B,,)|(A,,G,,) (F,,G,,) C,4|(F,E,) (D,F,) (E,D,) (C,E,)|\
(F,D,) (G,G,,) C,4|(C,B,,) (A,,C,) (B,,A,,) (G,,B,,)|
(A,,G,,) (F,,G,,) C,4|(F,E,) (D,F,) (E,D,) (C,E,)|(F,D,) (G,G,,) C,4|(B,,A,,) (G,,B,,)C,4|\
(^C,B,,) (A,,C,)D,4|
(B,,A,,) (G,,B,,) (C,D,) (E,D,)|(C,A,,)D,2G,,4|(D,E,) (F,D,) (E,F,) (G,E,)|(F,D, G,G,,)C,4||
